X:1
T:Down by the Sally Garden
M:C
L:1/8
Q:80
C:arr. Kent Hiestand
S:Slow Air
K:HP
{g}AB|
{GdG}c2{g}BA{g}B2{d}ce|
{gef}f4{g}e2{ag}ae|  !
{gfg}f2ec{gBd}B4|
{G}A4{GAG}A2:|
e|  !
{ag}a2ge{g}f2ga|
{f}g4{a}e2{g}ce|
{g}f2ec{g}e2{g}f/2a3/2|  !
{GdG}a4{g}a2{g}AB|
{GdG}c2{g}BA{g}B2{d}ce|
{gef}f4{g}e2{ag}ae|  !
{gfg}f2ec{gBd}B4|
{G}A4{GAG}A2|]

